www/assets/icons/compare.svg

<svg xmlns="http://www.w3.org/2000/svg" width="24" height="24" viewBox="0 0 24 24" fill='currentColor'><path d="M10 3H5c-1.1 0-2 .9-2 2v14c0 1.1.9 2 2 2h5v2h2V1h-2zm0 15H5l5-6zm9-15h-5v2h5v13l-5-6v9h5c1.1 0 2-.9 2-2V5c0-1.1-.9-2-2-2"/></svg>

<svg width="24" height="24" viewBox="0 0 24 24" xmlns="http://www.w3.org/2000/svg" fill='currentColor'><path d="M10 3H5C3.9 3 3 3.9 3 5V19C3 20.1 3.9 21 5 21H10V23H12V1H10V3ZM10 18H5L10 12V18ZM19 3H14V5H19V18L14 12V21H19C20.1 21 21 20.1 21 19V5C21 3.9 20.1 3 19 3Z"/></svg>
